svg/axis_arrow_info.svg

<svg xmlns="http://www.w3.org/2000/svg" viewBox="0 0 24 24"><path d="m12 2 4 4h-3v7.85l6.53 3.76L21 15.03l1.5 5.47-5.5 1.46 1.53-2.61L12 15.58l-6.53 3.77L7 21.96 1.5 20.5 3 15.03l1.47 2.58L11 13.85V6H8zm9 3h-2V3h2zm1 5v2h-4v-2h1V8h-1V6h3v4z"/></svg>

<?xml version="1.0" encoding="UTF-8"?><!DOCTYPE svg PUBLIC "-//W3C//DTD SVG 1.1//EN" "http://www.w3.org/Graphics/SVG/1.1/DTD/svg11.dtd"><svg xmlns="http://www.w3.org/2000/svg" xmlns:xlink="http://www.w3.org/1999/xlink" version="1.1" id="mdi-axis-arrow-info" width="24" height="24" viewBox="0 0 24 24"><path d="M12 2L16 6H13V13.85L19.53 17.61L21 15.03L22.5 20.5L17 21.96L18.53 19.35L12 15.58L5.47 19.35L7 21.96L1.5 20.5L3 15.03L4.47 17.61L11 13.85V6H8L12 2M21 5H19V3H21V5M22 10V12H18V10H19V8H18V6H21V10H22Z" /></svg>
